;Generated with Cura_SteamEngine 13.06.4
M109 T0 S230.000000
T0
;Sliced at: Thu 08 Aug 2013 17:21:56
;Basic settings: Layer height: 0.3 Walls: 0.8 Fill: 80
;Print time: #P_TIME#
;Filament used: #F_AMNT#m #F_WGHT#g
;Filament cost: #F_COST#
G21        ;metric values
G90        ;absolute positioning
M107       ;start with the fan off
G28 X0 Y0  ;move X/Y to min endstops
G28 Z0     ;move Z to min endstops
G1 Z15.0 F9000 ;move the platform down 15mm
G92 E0                  ;zero the extruded length
G1 F200 E3              ;extrude 3mm of feed stock
G92 E0                  ;zero the extruded length again
G1 F9000
M117 Printing...

;total_layers=37
;LAYER:0
M107
G0 F3600 X68.92 Y73.62 Z0.30
;TYPE:SKIRT
G1 F1200 X87.13 Y71.89 E0.33235
G1 X88.33 Y72.25 E0.35513
G1 X95.56 Y78.10 E0.52410
G1 X101.85 Y76.89 E0.64049
G1 X102.05 Y76.86 E0.64405
G1 X103.20 Y76.78 E0.66510
G1 X103.50 Y76.79 E0.67046
G1 X104.70 Y76.93 E0.69242
G1 X104.99 Y76.99 E0.69772
G1 X106.14 Y77.35 E0.71965
G1 X106.41 Y77.46 E0.72499
G1 X107.48 Y78.02 E0.74693
G1 X107.73 Y78.18 E0.75224
G1 X108.68 Y78.92 E0.77416
G1 X108.89 Y79.12 E0.77949
G1 X109.69 Y80.03 E0.80147
G1 X109.86 Y80.27 E0.80680
G1 X110.48 Y81.30 E0.82874
G1 X110.61 Y81.57 E0.83407
G1 X111.03 Y82.70 E0.85602
G1 X111.11 Y82.98 E0.86138
G1 X111.30 Y84.10 E0.88198
G1 X111.32 Y84.25 E0.88463
G1 X112.66 Y100.64 E1.18350
G1 X112.66 Y100.83 E1.18686
G1 X112.62 Y101.97 E1.20775
G1 X112.57 Y102.34 E1.21453
G1 X112.24 Y103.54 E1.23713
G1 X112.10 Y103.89 E1.24391
G1 X111.50 Y104.98 E1.26651
G1 X111.29 Y105.29 E1.27328
G1 X110.45 Y106.21 E1.29586
G1 X110.18 Y106.45 E1.30259
G1 X109.15 Y107.16 E1.32519
G1 X108.82 Y107.34 E1.33201
G1 X107.66 Y107.79 E1.35461
G1 X107.30 Y107.88 E1.36136
G1 X106.07 Y108.06 E1.38392
G1 X105.70 Y108.07 E1.39066
G1 X104.47 Y107.95 E1.41325
G1 X104.10 Y107.87 E1.42006
G1 X102.92 Y107.47 E1.44267
G1 X102.58 Y107.31 E1.44947
G1 X101.53 Y106.65 E1.47206
G1 X101.24 Y106.42 E1.47881
G1 X100.36 Y105.54 E1.50138
G1 X100.13 Y105.25 E1.50815
G1 X99.49 Y104.18 E1.53075
G1 X99.33 Y103.84 E1.53751
G1 X98.96 Y102.71 E1.55925
G1 X98.90 Y102.43 E1.56432
G1 X98.89 Y102.38 E1.56540
G1 X94.37 Y93.25 E1.75048
G1 X81.56 Y82.89 E2.04973
G1 X80.77 Y82.74 E2.06441
G1 X79.32 Y82.59 E2.09081
G1 X77.88 Y82.59 E2.11693
G1 X76.43 Y82.73 E2.14341
G1 X75.02 Y83.00 E2.16952
G1 X73.64 Y83.41 E2.19577
G1 X70.66 Y84.61 E2.25407
G1 X67.92 Y82.94 E2.31241
G1 X67.23 Y75.66 E2.44528
G1 X68.92 Y73.62 E2.49344
G1 F2400 E-2.00656
G0 F3600 X71.19 Y77.22
;TYPE:WALL-INNER
G1 F2400 E2.49344
G1 F1200 X86.62 Y75.76 E2.77496
G1 X94.43 Y82.07 E2.95749
G1 X94.69 Y82.14 E2.96228
G1 X102.44 Y80.64 E3.10557
G1 X103.26 Y80.59 E3.12065
G1 X104.06 Y80.68 E3.13528
G1 X104.83 Y80.92 E3.14976
G1 X105.54 Y81.29 E3.16451
G1 X106.17 Y81.79 E3.17903
G1 X106.71 Y82.39 E3.19369
G1 X107.12 Y83.08 E3.20834
G1 X107.40 Y83.83 E3.22288
G1 X107.54 Y84.65 E3.23800
G1 X108.86 Y100.82 E3.53269
G1 X108.83 Y101.59 E3.54665
G1 X108.64 Y102.30 E3.55997
G1 X108.30 Y102.93 E3.57310
G1 X107.80 Y103.48 E3.58650
G1 X107.20 Y103.89 E3.59974
G1 X106.52 Y104.16 E3.61302
G1 X105.80 Y104.26 E3.62628
G1 X105.07 Y104.19 E3.63955
G1 X104.38 Y103.96 E3.65277
G1 X103.76 Y103.57 E3.66607
G1 X103.25 Y103.05 E3.67942
G1 X102.87 Y102.43 E3.69258
G1 X102.64 Y101.71 E3.70626
G1 X102.58 Y101.29 E3.71408
G1 X102.55 Y101.19 E3.71581
G1 X97.44 Y90.87 E3.92506
G1 X97.36 Y90.77 E3.92744
G1 X83.27 Y79.39 E4.25634
G1 X83.14 Y79.33 E4.25900
G1 X81.31 Y78.97 E4.29299
G1 X79.53 Y78.80 E4.32540
G1 X77.72 Y78.79 E4.35834
G1 X75.88 Y78.97 E4.39179
G1 X74.10 Y79.31 E4.42473
G1 X72.37 Y79.82 E4.45764
G1 X71.47 Y80.19 E4.47517
G1 X71.19 Y77.22 E4.52930
G0 F3600 X83.39 Y79.49
G0 X97.44 Y90.87
G0 X103.91 Y99.62
G1 F1200 X103.62 Y100.07 E4.53903
G1 X103.58 Y100.14 E4.54046
G1 X103.42 Y100.65 E4.55019
G1 X103.41 Y100.73 E4.55162
G1 X103.38 Y101.27 E4.56135
G1 X103.39 Y101.35 E4.56281
G1 X103.50 Y101.87 E4.57251
G1 X103.53 Y101.94 E4.57392
G1 X103.77 Y102.42 E4.58366
G1 X103.82 Y102.48 E4.58509
G1 X104.23 Y102.93 E4.59622
G1 X104.68 Y103.22 E4.60596
G1 X104.76 Y103.25 E4.60738
G1 X105.27 Y103.42 E4.61712
G1 X105.34 Y103.43 E4.61854
G1 X105.88 Y103.46 E4.62827
G1 X105.96 Y103.45 E4.62971
G1 X106.48 Y103.34 E4.63945
G1 X106.55 Y103.31 E4.64088
G1 X107.03 Y103.07 E4.65057
G1 X107.09 Y103.02 E4.65199
G1 X107.54 Y102.61 E4.66303
G1 X107.83 Y102.15 E4.67289
G1 X107.86 Y102.08 E4.67431
G1 X108.03 Y101.57 E4.68405
G1 X108.04 Y101.50 E4.68547
G1 X108.07 Y100.96 E4.69520
G1 X108.07 Y100.88 E4.69662
G1 X107.95 Y100.36 E4.70634
G1 X107.93 Y100.29 E4.70777
G1 X107.68 Y99.81 E4.71753
G1 X107.64 Y99.74 E4.71895
G1 X107.22 Y99.30 E4.73008
G1 X106.77 Y99.01 E4.73980
G1 X106.70 Y98.97 E4.74123
G1 X106.19 Y98.81 E4.75097
G1 X106.11 Y98.79 E4.75239
G1 X105.57 Y98.77 E4.76214
G1 X105.49 Y98.77 E4.76359
G1 X104.97 Y98.89 E4.77330
G1 X104.90 Y98.91 E4.77471
G1 X104.42 Y99.16 E4.78444
G1 X104.36 Y99.20 E4.78588
G1 X103.91 Y99.62 E4.79701
G0 F3600 X104.23 Y99.86
;TYPE:WALL-OUTER
G1 F1200 X103.97 Y100.27 E4.80580
G1 X103.96 Y100.29 E4.80627
G1 X103.80 Y100.78 E4.81552
G1 X103.78 Y101.26 E4.82430
G1 X103.89 Y101.78 E4.83401
G1 X104.13 Y102.23 E4.84326
G1 X104.47 Y102.61 E4.85249
G1 X104.88 Y102.87 E4.86128
G1 X104.90 Y102.88 E4.86176
G1 X105.39 Y103.03 E4.87100
G1 X105.87 Y103.06 E4.87979
G1 X106.39 Y102.94 E4.88951
G1 X106.82 Y102.72 E4.89826
G1 X107.22 Y102.37 E4.90787
G1 X107.48 Y101.96 E4.91677
G1 X107.49 Y101.94 E4.91725
G1 X107.65 Y101.45 E4.92649
G1 X107.67 Y100.97 E4.93528
G1 X107.67 Y100.94 E4.93575
G1 X107.56 Y100.44 E4.94498
G1 X107.32 Y99.99 E4.95425
G1 X106.98 Y99.62 E4.96348
G1 X106.57 Y99.36 E4.97226
G1 X106.55 Y99.35 E4.97273
G1 X106.06 Y99.19 E4.98197
G1 X105.58 Y99.17 E4.99078
G1 X105.06 Y99.28 E5.00049
G1 X104.61 Y99.52 E5.00974
G1 X104.23 Y99.86 E5.01897
G0 F3600 X103.98 Y99.70
G0 X102.44 Y101.21
G0 X102.17 Y101.34
G1 F1200 X97.10 Y91.09 E5.22685
G1 X97.07 Y91.05 E5.22764
G1 X83.06 Y79.73 E5.55487
G1 X83.02 Y79.71 E5.55577
G1 X81.26 Y79.37 E5.58835
G1 X79.50 Y79.19 E5.62039
G1 X77.73 Y79.19 E5.65264
G1 X75.95 Y79.36 E5.68505
G1 X74.21 Y79.69 E5.71728
G1 X72.51 Y80.20 E5.74951
G1 X71.13 Y80.76 E5.77659
G1 X70.76 Y76.86 E5.84774
G1 X86.74 Y75.34 E6.13948
G1 X94.62 Y81.70 E6.32335
G1 X94.70 Y81.73 E6.32496
G1 X102.38 Y80.25 E6.46705
G1 X103.27 Y80.19 E6.48324
G1 X104.15 Y80.29 E6.49922
G1 X104.98 Y80.55 E6.51512
G1 X105.76 Y80.95 E6.53113
G1 X106.45 Y81.49 E6.54698
G1 X107.03 Y82.15 E6.56291
G1 X107.48 Y82.91 E6.57901
G1 X107.79 Y83.73 E6.59484
G1 X107.94 Y84.61 E6.61104
G1 X109.26 Y100.81 E6.90638
G1 X109.23 Y101.65 E6.92165
G1 X109.02 Y102.44 E6.93665
G1 X108.62 Y103.16 E6.95152
G1 X108.07 Y103.78 E6.96660
G1 X107.39 Y104.25 E6.98152
G1 X106.63 Y104.55 E6.99647
G1 X105.81 Y104.66 E7.01146
G1 X104.99 Y104.58 E7.02644
G1 X104.21 Y104.32 E7.04134
G1 X103.51 Y103.88 E7.05639
G1 X102.93 Y103.30 E7.07133
G1 X102.50 Y102.59 E7.08633
G1 X102.25 Y101.81 E7.10138
G1 X102.18 Y101.37 E7.10929
G1 X102.17 Y101.34 E7.10988
G0 F3600 X102.66 Y101.10
;TYPE:FILL
G1 F1200 X103.34 Y101.79 E7.12743
G0 F3600 X102.82 Y101.83
G1 F1200 X105.01 Y104.02 E7.18368
G0 F3600 X105.05 Y103.50
G1 F1200 X105.66 Y104.11 E7.19935
G0 F3600 X105.71 Y103.59
G1 F1200 X106.41 Y104.01 E7.21148
G1 X106.44 Y103.47 E7.22232
G1 X107.22 Y103.69 E7.23224
G1 X107.19 Y103.10 E7.24152
G1 X107.86 Y103.20 E7.25116
G1 X107.76 Y102.53 E7.26023
G1 X108.34 Y102.55 E7.26988
G1 X108.11 Y101.75 E7.28005
G1 X108.64 Y101.72 E7.29068
G1 X108.21 Y101.00 E7.30598
G0 F3600 X108.72 Y100.94
G1 F1200 X108.08 Y100.31 E7.32230
G0 F3600 X108.68 Y100.34
G1 F1200 X84.44 Y76.10 E7.94505
G0 F3600 X83.93 Y76.15
G1 F1200 X106.55 Y98.78 E8.52640
G0 F3600 X105.85 Y98.64
G1 F1200 X83.41 Y76.20 E9.10289
G0 F3600 X82.89 Y76.25
G1 F1200 X96.72 Y90.08 E9.45817
G0 F3600 X97.67 Y91.02
G1 F1200 X105.31 Y98.67 E9.65462
G0 F3600 X104.86 Y98.78
G1 F1200 X98.22 Y92.14 E9.82510
G0 F3600 X98.78 Y93.26
G1 F1200 X104.48 Y98.97 E9.97168
G0 F3600 X104.15 Y99.20
G1 F1200 X99.33 Y94.38 E10.09549
G0 F3600 X99.88 Y95.50
G1 F1200 X103.86 Y99.48 E10.19757
G0 F3600 X103.62 Y99.81
G1 F1200 X100.44 Y96.62 E10.27935
G0 F3600 X100.99 Y97.74
G1 F1200 X103.43 Y100.18 E10.34186
G0 F3600 X103.29 Y100.60
G1 F1200 X101.55 Y98.86 E10.38657
G0 F3600 X102.10 Y99.98
G1 F1200 X103.24 Y101.13 E10.41592
G0 F3600 X103.31 Y102.89
G1 F1200 X103.93 Y103.51 E10.43184
G0 F3600 X106.55 Y103.31
G0 X107.86 Y102.08
G0 X108.63 Y99.73
G1 F1200 X84.96 Y76.05 E11.04002
G0 F3600 X85.48 Y76.00
G1 F1200 X108.58 Y99.11 E11.63363
G0 F3600 X108.53 Y98.49
G1 F1200 X85.99 Y75.96 E12.21267
G0 F3600 X86.51 Y75.91
G1 F1200 X108.48 Y97.88 E12.77714
G0 F3600 X108.43 Y97.26
G1 F1200 X89.17 Y78.00 E13.27207
G0 F3600 X92.11 Y80.38
G1 F1200 X108.38 Y96.64 E13.69008
G0 F3600 X108.33 Y96.03
G1 F1200 X94.54 Y82.24 E14.04429
G0 F3600 X95.07 Y82.20
G1 F1200 X108.28 Y95.41 E14.38368
G0 F3600 X108.23 Y94.80
G1 F1200 X95.55 Y82.11 E14.70959
G0 F3600 X96.02 Y82.02
G1 F1200 X108.18 Y94.18 E15.02199
G0 F3600 X108.13 Y93.56
G1 F1200 X96.49 Y81.93 E15.32091
G0 F3600 X96.97 Y81.84
G1 F1200 X108.08 Y92.95 E15.60636
G0 F3600 X108.03 Y92.33
G1 F1200 X97.44 Y81.75 E15.87833
G0 F3600 X97.92 Y81.66
G1 F1200 X107.98 Y91.72 E16.13681
G0 F3600 X107.93 Y91.10
G1 F1200 X98.39 Y81.57 E16.38181
G0 F3600 X98.87 Y81.47
G1 F1200 X107.88 Y90.49 E16.61336
G0 F3600 X107.83 Y89.87
G1 F1200 X99.34 Y81.38 E16.83140
G0 F3600 X99.81 Y81.29
G1 F1200 X107.78 Y89.25 E17.03596
G0 F3600 X107.73 Y88.64
G1 F1200 X100.29 Y81.20 E17.22705
G0 F3600 X100.76 Y81.11
G1 F1200 X107.68 Y88.02 E17.40465
G0 F3600 X107.63 Y87.41
G1 F1200 X101.24 Y81.02 E17.56878
G0 F3600 X101.71 Y80.93
G1 F1200 X107.58 Y86.79 E17.71943
G0 F3600 X107.53 Y86.17
G1 F1200 X102.19 Y80.83 E17.85660
G0 F3600 X102.69 Y80.77
G1 F1200 X107.47 Y85.56 E17.97964
G0 F3600 X107.43 Y84.94
G1 F1200 X103.22 Y80.73 E18.08780
G0 F3600 X103.85 Y80.80
G1 F1200 X107.33 Y84.29 E18.17743
G0 F3600 X107.13 Y83.52
G1 F1200 X104.61 Y81.00 E18.24221
G0 F3600 X106.03 Y81.85
G1 F1200 X106.14 Y81.96 E18.24490
G0 F3600 X93.78 Y87.70
G1 F1200 X82.38 Y76.30 E18.53779
G0 F3600 X81.86 Y76.35
G1 F1200 X90.83 Y85.32 E18.76828
G0 F3600 X87.89 Y82.94
G1 F1200 X81.34 Y76.40 E18.93639
G0 F3600 X80.83 Y76.45
G1 F1200 X84.94 Y80.56 E19.04209
G0 F3600 X82.97 Y79.16
G1 F1200 X80.31 Y76.49 E19.11046
G0 F3600 X79.79 Y76.54
G1 F1200 X82.27 Y79.02 E19.17401
G0 F3600 X81.56 Y78.88
G1 F1200 X79.28 Y76.59 E19.23277
G0 F3600 X78.76 Y76.64
G1 F1200 X80.91 Y78.79 E19.28798
G0 F3600 X80.28 Y78.73
G1 F1200 X78.24 Y76.69 E19.34037
G0 F3600 X77.73 Y76.74
G1 F1200 X79.65 Y78.67 E19.38991
G0 F3600 X79.08 Y78.65
G1 F1200 X77.21 Y76.79 E19.43784
G0 F3600 X76.69 Y76.84
G1 F1200 X78.51 Y78.65 E19.48446
G0 F3600 X77.94 Y78.65
G1 F1200 X76.17 Y76.89 E19.52978
G0 F3600 X75.66 Y76.94
G1 F1200 X77.40 Y78.68 E19.57456
G0 F3600 X76.89 Y78.73
G1 F1200 X75.14 Y76.98 E19.61935
G0 F3600 X74.63 Y77.03
G1 F1200 X76.37 Y78.78 E19.66416
G0 F3600 X75.85 Y78.83
G1 F1200 X74.11 Y77.08 E19.70898
G0 F3600 X73.59 Y77.13
G1 F1200 X75.38 Y78.92 E19.75491
G0 F3600 X74.91 Y79.01
G1 F1200 X73.08 Y77.18 E19.80193
G0 F3600 X72.56 Y77.23
G1 F1200 X74.43 Y79.10 E19.85004
G0 F3600 X73.97 Y79.20
G1 F1200 X72.04 Y77.28 E19.89947
G0 F3600 X71.53 Y77.33
G1 F1200 X73.53 Y79.33 E19.95097
G0 F3600 X73.09 Y79.46
G1 F1200 X71.38 Y77.75 E19.99496
G0 F3600 X71.44 Y78.37
G1 F1200 X72.66 Y79.59 E20.02623
G0 F3600 X72.23 Y79.73
G1 F1200 X71.50 Y79.00 E20.04498
G0 F3600 X71.56 Y79.62
G1 F1200 X71.83 Y79.89 E20.05192
;LAYER:1
M106 S255
G0 F4920 X71.47 Y80.19 Z0.60
;TYPE:WALL-INNER
G1 F1620 X71.19 Y77.22 E20.10604
G1 X86.62 Y75.76 E20.38757
G1 X94.43 Y82.07 E20.57009
G1 X94.69 Y82.14 E20.57489
G1 X102.44 Y80.64 E20.71818
G1 X103.26 Y80.59 E20.73326
G1 X104.06 Y80.68 E20.74789
G1 X104.83 Y80.92 E20.76237
G1 X105.54 Y81.29 E20.77712
G1 X106.17 Y81.79 E20.79164
G1 X106.71 Y82.39 E20.80630
G1 X107.12 Y83.08 E20.82095
G1 X107.40 Y83.83 E20.83549
G1 X107.54 Y84.65 E20.85061
G1 X108.86 Y100.82 E21.14530
G1 X108.83 Y101.59 E21.15926
G1 X108.64 Y102.30 E21.17257
G1 X108.30 Y102.93 E21.18570
G1 X107.80 Y103.48 E21.19911
G1 X107.20 Y103.89 E21.21235
G1 X106.52 Y104.16 E21.22562
G1 X105.80 Y104.26 E21.23889
G1 X105.07 Y104.19 E21.25215
G1 X104.38 Y103.96 E21.26537
G1 X103.76 Y103.57 E21.27868
G1 X103.25 Y103.05 E21.29202
G1 X102.87 Y102.43 E21.30519
G1 X102.64 Y101.71 E21.31887
G1 X102.58 Y101.29 E21.32669
G1 X102.55 Y101.19 E21.32841
G1 X97.44 Y90.87 E21.53767
G1 X97.36 Y90.77 E21.54005
G1 X83.27 Y79.39 E21.86894
G1 X83.14 Y79.33 E21.87161
G1 X81.31 Y78.97 E21.90560
G1 X79.53 Y78.80 E21.93800
G1 X77.72 Y78.79 E21.97094
G1 X75.88 Y78.97 E22.00439
G1 X74.10 Y79.31 E22.03733
G1 X72.37 Y79.82 E22.07025
G1 X71.47 Y80.19 E22.08778
G0 F4920 X75.91 Y78.96
G0 X81.34 Y78.98
G0 X83.52 Y79.59
G0 X97.44 Y90.87
G0 X103.62 Y100.07
G1 F1620 X103.58 Y100.14 E22.08920
G1 X103.42 Y100.65 E22.09894
G1 X103.41 Y100.73 E22.10036
G1 X103.38 Y101.27 E22.11009
G1 X103.39 Y101.35 E22.11155
G1 X103.50 Y101.87 E22.12126
G1 X103.53 Y101.94 E22.12267
G1 X103.77 Y102.42 E22.13240
G1 X103.82 Y102.48 E22.13384
G1 X104.23 Y102.93 E22.14497
G1 X104.68 Y103.22 E22.15470
G1 X104.76 Y103.25 E22.15613
G1 X105.27 Y103.42 E22.16586
G1 X105.34 Y103.43 E22.16729
G1 X105.88 Y103.46 E22.17702
G1 X105.96 Y103.45 E22.17846
G1 X106.48 Y103.34 E22.18820
G1 X106.55 Y103.31 E22.18962
G1 X107.03 Y103.07 E22.19933
G1 X107.09 Y103.02 E22.20075
G1 X107.54 Y102.60 E22.21192
G1 X107.83 Y102.15 E22.22165
G1 X107.87 Y102.08 E22.22307
G1 X108.03 Y101.57 E22.23281
G1 X108.04 Y101.50 E22.23423
G1 X108.07 Y100.96 E22.24396
G1 X108.07 Y100.88 E22.24538
G1 X107.95 Y100.36 E22.25510
G1 X107.93 Y100.29 E22.25652
G1 X107.68 Y99.81 E22.26629
G1 X107.64 Y99.74 E22.26771
G1 X107.22 Y99.30 E22.27884
G1 X106.77 Y99.01 E22.28856
G1 X106.70 Y98.97 E22.28999
G1 X106.19 Y98.81 E22.29972
G1 X106.11 Y98.79 E22.30115
G1 X105.57 Y98.77 E22.31090
G1 X105.49 Y98.77 E22.31235
G1 X104.97 Y98.89 E22.32206
G1 X104.90 Y98.91 E22.32347
G1 X104.42 Y99.16 E22.33320
G1 X104.36 Y99.20 E22.33464
G1 X103.91 Y99.62 E22.34577
G1 X103.62 Y100.07 E22.35550
G0 F4920 X103.97 Y100.27
;TYPE:WALL-OUTER
G1 F1620 X103.96 Y100.29 E22.35598
G1 X103.80 Y100.78 E22.36522
G1 X103.78 Y101.26 E22.37401
G1 X103.89 Y101.78 E22.38371
G1 X104.13 Y102.23 E22.39297
G1 X104.47 Y102.61 E22.40220
G1 X104.88 Y102.87 E22.41099
G1 X104.90 Y102.88 E22.41146
G1 X105.39 Y103.03 E22.42071
G1 X105.87 Y103.06 E22.42949
G1 X106.39 Y102.94 E22.43922
G1 X106.82 Y102.72 E22.44797
G1 X107.22 Y102.36 E22.45770
G1 X107.49 Y101.94 E22.46696
G1 X107.65 Y101.45 E22.47620
G1 X107.67 Y100.97 E22.48498
G1 X107.67 Y100.94 E22.48546
G1 X107.56 Y100.44 E22.49469
G1 X107.32 Y99.99 E22.50396
G1 X106.98 Y99.62 E22.51319
G1 X106.57 Y99.36 E22.52196
G1 X106.55 Y99.35 E22.52244
G1 X106.06 Y99.19 E22.53168
G1 X105.58 Y99.17 E22.54048
G1 X105.06 Y99.28 E22.55019
G1 X104.61 Y99.52 E22.55945
G1 X104.23 Y99.86 E22.56868
G1 X103.97 Y100.27 E22.57747
G0 F4920 X103.72 Y100.11
G0 X102.44 Y101.21
G0 X102.17 Y101.34
G1 F1620 X97.10 Y91.09 E22.78535
G1 X97.07 Y91.05 E22.78614
G1 X83.06 Y79.73 E23.11337
G1 X83.02 Y79.71 E23.11426
G1 X81.26 Y79.37 E23.14685
G1 X79.50 Y79.19 E23.17889
G1 X77.73 Y79.19 E23.21113
G1 X75.95 Y79.36 E23.24355
G1 X74.21 Y79.69 E23.27577
G1 X72.51 Y80.20 E23.30800
G1 X71.13 Y80.76 E23.33508
G1 X70.76 Y76.86 E23.40623
G1 X86.74 Y75.34 E23.69797
G1 X94.62 Y81.70 E23.88185
G1 X94.70 Y81.73 E23.88346
G1 X102.38 Y80.25 E24.02554
G1 X103.27 Y80.19 E24.04173
G1 X104.15 Y80.29 E24.05772
G1 X104.98 Y80.55 E24.07361
G1 X105.76 Y80.95 E24.08962
G1 X106.45 Y81.49 E24.10547
G1 X107.03 Y82.15 E24.12141
G1 X107.48 Y82.91 E24.13750
G1 X107.79 Y83.73 E24.15334
G1 X107.94 Y84.61 E24.16953
G1 X109.26 Y100.81 E24.46488
G1 X109.23 Y101.65 E24.48015
G1 X109.02 Y102.44 E24.49514
G1 X108.62 Y103.16 E24.51001
G1 X108.07 Y103.78 E24.52510
G1 X107.39 Y104.25 E24.54001
G1 X106.63 Y104.55 E24.55497
G1 X105.81 Y104.66 E24.56996
G1 X104.99 Y104.58 E24.58494
G1 X104.21 Y104.32 E24.59983
G1 X103.51 Y103.88 E24.61488
G1 X102.93 Y103.30 E24.62982
G1 X102.50 Y102.59 E24.64483
G1 X102.25 Y101.81 E24.65987
